!!!SOCIAL_FUNCTION:	deer dance songs
!!!PDT:	1932
!!!OTL: No_96_Song_of_the_Deer_Dance.krn
!!!REG: Southwest
!!!LANG: Non-Tone
!!!LING_GROUP: Yuman-Cochimi
**kern
*staff1
=1-
*clefF4
*k[b-]
*M2/4
8B-\L
8B-\J
8A\
8r
=2
16c\LK
8.A\J
12A\L
12A\
12G\J
=3
12A\L
12A\
12G\J
8A\
16r
16A\
=4
4G\
12G\L
12G\
12G\J
=5||
12G\L
12F\
12F\J
8F\
8r
=6||
12A\L
12G\
12F\J
16G\LK
8.G\J
=7
16F\LK
8F\
16F\Jk
8F\
8r
=8
8G\L
8F\J
4F;\
=9
12G\L
12F\
12F\J
4F\
=10
8F\L
8F\J
4F;\
=11
12F\L
12F\
12F\J
4F\
=12
2r
=13
4A\
4A\
=14
16c\LK
8.A\J
12A\L
12A\
12G\J
=15
12A\L
12A\
12G\J
8A\
8r
=16
16A\LK
8.A\J
20A\LL
20A\
20A\
20A\
20A\JJ
=17
12A\L
12G\
12F\J
8F\
8r
=18
12A\L
12G\
12F\J
8A\L
8G\J
=19
16F\LK
8F\
16F\Jk
8F\
8r
=20
8G\L
8F\J
4F\
=21
12G\L
12F\
12F\J
4F\
=22
8F\L
8F\J
4F\
=23
12F\L
12F\
12F\J
4F\
==
*-
